src/status/scalable/xchat-panel.svg

<svg width="64" height="64" viewBox="0 0 64 64" xmlns="http://www.w3.org/2000/svg">
 <path d="m14.59375 3.976562c-1.023438 0-2.09375 0.339844-2.875 1.125l-5.625 5.625c-1.566406 1.566407-1.566406 4.179688 0 5.75l3.5 3.5h22.75l-14.875-14.875c-0.785156-0.785156-1.851562-1.128906-2.875-1.128906zm36.75 0c-1.046875 0-2.089844 0.339844-2.875 1.125l-14.875 14.875h22.75l3.5-3.5c1.5625-1.570312 1.5625-4.183593 0-5.75l-5.628906-5.625c-0.777344-0.785156-1.828125-1.125-2.871094-1.125zm-32.464844 18.03125c-1.058594 0.042969-1.894531 0.90625-1.910156 1.96875v13.996094c-0.039062 2.703125 4.035156 2.703125 4 0v-6h4v6c-0.039062 2.703125 4.035156 2.703125 4 0v-8c-0.003906-1.101562-0.898438-1.996094-2-1.996094h-6v-4c-0.019531-1.125-0.960938-2.015624-2.089844-1.96875zm36 0c-1.054687 0.046876-1.894531 0.910157-1.910156 1.96875v4h-2c-2.585938 0.078126-2.585938 3.914063 0 3.996094h2v6c0 1.105469 0.894531 2 2 2h6c2.703125 0.039063 2.703125-4.039062 0-4h-4v-4h4c2.75 0.089844 2.75-4.085937 0-3.996094h-4v-4c-0.015625-1.125-0.960938-2.015624-2.085938-1.96875zm-51.910156 5.96875c-1.105469 0-2 0.894532-2 1.996094v8c0 1.105469 0.894531 2 2 2h8c2.703125 0.039063 2.703125-4.039062 0-4h-6v-4h6c2.703125 0.039063 2.703125-4.039062 0-4h-8zm32 0c-1.105469 0-2 0.894532-2 1.996094v8c0 1.105469 0.894531 2 2 2h3c2.703125 0.039063 2.703125-4.039062 0-4h-1v-4h4v6c-0.039062 2.703125 4.039062 2.703125 4 0v-8c0-1.101562-0.898438-1.996094-2-1.996094zm-25.375 15.996094-3.5 3.5c-1.566406 1.570313-1.566406 4.183594 0 5.753906l5.625 5.621094c1.566406 1.570313 4.183594 1.570313 5.75 0l14.875-14.875zm24 0 14.875 14.875c1.566406 1.570313 4.183594 1.570313 5.75 0l5.625-5.621094c1.566406-1.570312 1.566406-4.183593 0-5.753906l-3.5-3.5z" fill="rgb(18.039216%, 20.392157%, 25.098041%)" fill-rule="evenodd"/>
</svg>

<?xml version="1.0" encoding="UTF-8"?>
<svg xmlns="http://www.w3.org/2000/svg" xmlns:xlink="http://www.w3.org/1999/xlink" width="64" height="64" viewBox="0 0 64 64">
<path fill-rule="evenodd" fill="rgb(18.039216%, 20.392157%, 25.098041%)" fill-opacity="1" d="M 14.59375 3.976562 C 13.570312 3.976562 12.5 4.316406 11.71875 5.101562 L 6.09375 10.726562 C 4.527344 12.292969 4.527344 14.90625 6.09375 16.476562 L 9.59375 19.976562 L 32.34375 19.976562 L 17.46875 5.101562 C 16.683594 4.316406 15.617188 3.972656 14.59375 3.972656 Z M 51.34375 3.976562 C 50.296875 3.976562 49.253906 4.316406 48.46875 5.101562 L 33.59375 19.976562 L 56.34375 19.976562 L 59.84375 16.476562 C 61.40625 14.90625 61.40625 12.292969 59.84375 10.726562 L 54.214844 5.101562 C 53.4375 4.316406 52.386719 3.976562 51.34375 3.976562 Z M 18.878906 22.007812 C 17.820312 22.050781 16.984375 22.914062 16.96875 23.976562 L 16.96875 37.972656 C 16.929688 40.675781 21.003906 40.675781 20.96875 37.972656 L 20.96875 31.972656 L 24.96875 31.972656 L 24.96875 37.972656 C 24.929688 40.675781 29.003906 40.675781 28.96875 37.972656 L 28.96875 29.972656 C 28.964844 28.871094 28.070312 27.976562 26.96875 27.976562 L 20.96875 27.976562 L 20.96875 23.976562 C 20.949219 22.851562 20.007812 21.960938 18.878906 22.007812 Z M 54.878906 22.007812 C 53.824219 22.054688 52.984375 22.917969 52.96875 23.976562 L 52.96875 27.976562 L 50.96875 27.976562 C 48.382812 28.054688 48.382812 31.890625 50.96875 31.972656 L 52.96875 31.972656 L 52.96875 37.972656 C 52.96875 39.078125 53.863281 39.972656 54.96875 39.972656 L 60.96875 39.972656 C 63.671875 40.011719 63.671875 35.933594 60.96875 35.972656 L 56.96875 35.972656 L 56.96875 31.972656 L 60.96875 31.972656 C 63.71875 32.0625 63.71875 27.886719 60.96875 27.976562 L 56.96875 27.976562 L 56.96875 23.976562 C 56.953125 22.851562 56.007812 21.960938 54.882812 22.007812 Z M 2.96875 27.976562 C 1.863281 27.976562 0.96875 28.871094 0.96875 29.972656 L 0.96875 37.972656 C 0.96875 39.078125 1.863281 39.972656 2.96875 39.972656 L 10.96875 39.972656 C 13.671875 40.011719 13.671875 35.933594 10.96875 35.972656 L 4.96875 35.972656 L 4.96875 31.972656 L 10.96875 31.972656 C 13.671875 32.011719 13.671875 27.933594 10.96875 27.972656 L 2.96875 27.972656 Z M 34.96875 27.976562 C 33.863281 27.976562 32.96875 28.871094 32.96875 29.972656 L 32.96875 37.972656 C 32.96875 39.078125 33.863281 39.972656 34.96875 39.972656 L 37.96875 39.972656 C 40.671875 40.011719 40.671875 35.933594 37.96875 35.972656 L 36.96875 35.972656 L 36.96875 31.972656 L 40.96875 31.972656 L 40.96875 37.972656 C 40.929688 40.675781 45.007812 40.675781 44.96875 37.972656 L 44.96875 29.972656 C 44.96875 28.871094 44.070312 27.976562 42.96875 27.976562 Z M 9.59375 43.972656 L 6.09375 47.472656 C 4.527344 49.042969 4.527344 51.65625 6.09375 53.226562 L 11.71875 58.847656 C 13.285156 60.417969 15.902344 60.417969 17.46875 58.847656 L 32.34375 43.972656 Z M 33.59375 43.972656 L 48.46875 58.847656 C 50.035156 60.417969 52.652344 60.417969 54.21875 58.847656 L 59.84375 53.226562 C 61.410156 51.65625 61.410156 49.042969 59.84375 47.472656 L 56.34375 43.972656 Z M 33.59375 43.972656 "/>
</svg>
